src/assets/img/svgs/isolated-metro.svg

<?xml version="1.0" encoding="UTF-8"?>
<svg width="255px" height="255px" viewBox="0 0 255 255" version="1.1" xmlns="http://www.w3.org/2000/svg" xmlns:xlink="http://www.w3.org/1999/xlink">
    <!-- Generator: Sketch 58 (84663) - https://sketch.com -->
    <title>Icon / Modes / Isolated / Metro</title>
    <desc>Created with Sketch.</desc>
    <g id="Icon-/-Modes-/-Isolated-/-Metro" stroke="none" stroke-width="1" fill="none" fill-rule="evenodd">
        <path d="M173.840917,205.5 L180.39387,220.451492 L191.680961,246.313083 C192.621514,248.511362 191.412821,250.398234 188.970684,250.496021 L188.769988,250.5 L178.562002,250.5 C176.057613,250.5 173.6557,248.68259 173.114751,246.252887 L173.070749,246.030352 L168.632494,220.451492 L166,205.5 L173.840917,205.5 Z M89.0968108,204.222345 L82.118,245.903448 C81.683973,248.516 79.256,250.5 76.6905135,250.5 L76.6905135,250.5 L66.6176486,250.5 C64.0736486,250.5 62.7844595,248.516 63.7599459,246.194207 L63.7599459,246.194207 L74.8985405,219.598345 L81.3616757,204.222345 L89.0968108,204.222345 Z M127.931486,4.20606897 C129.468402,4.20606897 131.009125,4.74012266 132.231212,5.82605411 L132.456541,6.03613793 L155.429892,28.8051034 C157.874111,31.358106 157.933726,35.2093833 155.624699,37.6788055 L155.447081,37.8613793 L143.333,50.021931 L164.467108,50.021931 C181.344013,50.021931 196.371945,63.5706982 198.121859,80.26288 L198.170811,80.7696552 L205.630919,165.790897 C207.115678,182.520121 194.651018,196.261325 177.852183,196.534477 L177.341811,196.538621 L78.4223243,196.538621 C61.5198938,196.538621 48.8882093,182.964709 50.0799693,166.296917 L50.1203243,165.790897 L57.5933243,80.7696552 C59.0780835,64.0150317 73.9352476,50.2987183 90.7858056,50.0260675 L91.297027,50.021931 L112.431135,50.021931 L100.299865,38.0153103 C97.8430686,35.6124844 97.7831467,31.622426 100.120099,29.1302624 L100.299865,28.9462069 L123.367757,6.03613793 C124.61827,4.80896552 126.259838,4.20606897 127.931486,4.20606897 Z M77.4812162,150.260966 C71.0825405,150.260966 65.8613243,155.490345 65.8613243,161.792966 C65.8613243,168.249517 71.0825405,173.324966 77.4812162,173.324966 C83.8927838,173.324966 89.0968108,168.249517 89.0968108,161.792966 C89.0968108,155.490345 83.8927838,150.260966 77.4812162,150.260966 Z M178.282919,150.260966 C171.875649,150.260966 166.663027,155.490345 166.663027,161.792966 C166.663027,168.249517 171.875649,173.324966 178.282919,173.324966 C184.660108,173.324966 189.885622,168.249517 189.885622,161.792966 C189.885622,155.490345 184.660108,150.260966 178.282919,150.260966 Z M166.405189,65.397931 L89.3632432,65.397931 C80.9580561,65.397931 73.4577348,72.1422364 72.5495071,80.4493896 L72.5178378,80.7696552 L68.4397027,127.201241 C68.0813243,131.274766 71.1356945,134.755583 75.2772271,134.885484 L75.5173514,134.889241 L180.229595,134.889241 C184.416297,134.889241 187.57297,131.485284 187.341559,127.435575 L187.324432,127.201241 L183.242,80.7696552 C182.502865,72.3162759 174.931027,65.397931 166.405189,65.397931 Z M127.927189,17.905931 L112.211973,33.4144828 L127.914297,49.0983448 L143.565054,33.4144828 L127.927189,17.905931 Z" id="Combined-Shape" fill="#42194F"></path>
    </g>
</svg>

<svg width="255" height="255" xmlns="http://www.w3.org/2000/svg"><path d="M173.84 205.5l6.554 14.951 11.287 25.862c.94 2.198-.268 4.085-2.71 4.183l-.201.004h-10.208c-2.504 0-4.906-1.817-5.447-4.247l-.044-.223-4.439-25.579L166 205.5h7.84zm-84.743-1.278l-6.979 41.681c-.434 2.613-2.862 4.597-5.427 4.597H66.618c-2.544 0-3.834-1.984-2.858-4.306l11.139-26.596 6.463-15.376h7.735zM127.93 4.206c1.537 0 3.078.534 4.3 1.62l.226.21 22.973 22.77c2.444 2.552 2.504 6.403.195 8.873l-.178.182-12.114 12.16h21.134c16.877 0 31.905 13.55 33.655 30.242l.049.507 7.46 85.02c1.485 16.73-10.98 30.471-27.779 30.744l-.51.005h-98.92c-16.902 0-29.534-13.574-28.342-30.242l.04-.506 7.473-85.021c1.485-16.755 16.342-30.471 33.193-30.744l.511-.004h21.134L100.3 38.015c-2.457-2.403-2.517-6.393-.18-8.885l.18-.184 23.068-22.91c1.25-1.227 2.892-1.83 4.563-1.83zM77.48 150.261c-6.398 0-11.62 5.23-11.62 11.532 0 6.457 5.222 11.532 11.62 11.532 6.412 0 11.616-5.075 11.616-11.532 0-6.303-5.204-11.532-11.616-11.532zm100.802 0c-6.407 0-11.62 5.23-11.62 11.532 0 6.457 5.213 11.532 11.62 11.532 6.377 0 11.603-5.075 11.603-11.532 0-6.303-5.226-11.532-11.603-11.532zm-11.878-84.863H89.363c-8.405 0-15.905 6.744-16.813 15.051l-.032.32-4.078 46.432c-.359 4.074 2.696 7.555 6.837 7.684l.24.004H180.23c4.186 0 7.343-3.404 7.112-7.453l-.018-.235-4.082-46.431c-.74-8.454-8.311-15.372-16.837-15.372zm-38.478-47.492l-15.715 15.508 15.702 15.684 15.651-15.684-15.638-15.508z" fill="#42194F" fill-rule="evenodd"/></svg>
